content/learn/migration-guides/python-to-rust/python.svg

<?xml version="1.0" encoding="UTF-8" standalone="no"?>
<svg
   viewBox="0 0 40 40"
   version="1.1"
   id="svg4"
   sodipodi:docname="python.svg"
   inkscape:version="1.4 (e7c3feb1, 2024-10-09)"
   xmlns:inkscape="http://www.inkscape.org/namespaces/inkscape"
   xmlns:sodipodi="http://sodipodi.sourceforge.net/DTD/sodipodi-0.dtd"
   xmlns="http://www.w3.org/2000/svg"
   xmlns:svg="http://www.w3.org/2000/svg">
  <defs
     id="defs4" />
  <sodipodi:namedview
     id="namedview4"
     pagecolor="#ffffff"
     bordercolor="#666666"
     borderopacity="1.0"
     inkscape:showpageshadow="2"
     inkscape:pageopacity="0.0"
     inkscape:pagecheckerboard="0"
     inkscape:deskcolor="#d1d1d1"
     inkscape:zoom="9.0928731"
     inkscape:cx="20.455581"
     inkscape:cy="20.455581"
     inkscape:window-width="1920"
     inkscape:window-height="1027"
     inkscape:window-x="0"
     inkscape:window-y="25"
     inkscape:window-maximized="0"
     inkscape:current-layer="svg4" />
  <path
     id="rect1"
     d="M 20 0 C 14.46 0 10 2.23 10 5 L 10 9 L 20 9 L 20 10 L 10 10 L 5 10 C 2.23 10 0 14.46 0 20 C 0 25.54 2.23 30 5 30 L 9 30 C 9 27.479167 9.1549662 25.571541 9.5234375 24.097656 C 9.8919088 22.623771 10.492174 21.565636 11.375 20.859375 C 13.140653 19.44685 15.75 19.5 19.5 19.5 C 23.75 19.5 26.411903 19.443006 27.890625 18.347656 C 28.629986 17.799981 29.143688 16.988977 29.492188 15.654297 C 29.840687 14.319617 30 12.479167 30 10 L 30 5 C 30 2.23 25.54 0 20 0 z M 14.5 3.1503906 A 1.85 1.85 0 0 1 16.349609 5 A 1.85 1.85 0 0 1 14.5 6.8496094 A 1.85 1.85 0 0 1 12.650391 5 A 1.85 1.85 0 0 1 14.5 3.1503906 z M 31 10 C 31 12.520833 30.846813 14.430383 30.460938 15.908203 C 30.075062 17.386023 29.432514 18.450019 28.484375 19.152344 C 26.588097 20.55699 23.75 20.5 19.5 20.5 C 15.75 20.5 13.359347 20.553147 12 21.640625 C 11.320326 22.184364 10.826839 23.001229 10.492188 24.339844 C 10.157533 25.678459 10 27.520833 10 30 L 10 35 C 10 37.77 14.46 40 20 40 C 25.54 40 30 37.77 30 35 L 30 31 L 20 31 L 20 30 L 30 30 L 35 30 C 37.77 30 40 25.54 40 20 C 40 14.46 37.77 10 35 10 L 31 10 z M 25.5 33.150391 A 1.85 1.85 0 0 1 27.349609 35 A 1.85 1.85 0 0 1 25.5 36.849609 A 1.85 1.85 0 0 1 23.650391 35 A 1.85 1.85 0 0 1 25.5 33.150391 z " />
  <path
     d="m 10,9.5 h 10 m 0,21 h 10"
     id="path5"
     style="color:#000000;font-style:normal;font-variant:normal;font-weight:normal;font-stretch:normal;font-size:medium;line-height:normal;font-family:sans-serif;font-variant-ligatures:normal;font-variant-position:normal;font-variant-caps:normal;font-variant-numeric:normal;font-variant-alternates:normal;font-variant-east-asian:normal;font-feature-settings:normal;font-variation-settings:normal;text-indent:0;text-align:start;text-decoration-line:none;text-decoration-style:solid;text-decoration-color:#000000;letter-spacing:normal;word-spacing:normal;text-transform:none;writing-mode:lr-tb;direction:ltr;text-orientation:mixed;dominant-baseline:auto;baseline-shift:baseline;text-anchor:start;white-space:normal;shape-padding:0;shape-margin:0;inline-size:0;clip-rule:nonzero;display:inline;overflow:visible;visibility:visible;isolation:auto;mix-blend-mode:normal;color-interpolation:sRGB;color-interpolation-filters:linearRGB;solid-color:#000000;solid-opacity:1;vector-effect:none;fill:#000000;fill-opacity:1;fill-rule:nonzero;stroke:none;stroke-linecap:butt;stroke-linejoin:miter;stroke-miterlimit:4;stroke-dasharray:none;stroke-dashoffset:0;stroke-opacity:1;-inkscape-stroke:none;color-rendering:auto;image-rendering:auto;shape-rendering:auto;text-rendering:auto;enable-background:accumulate;stop-color:#000000" />
</svg>

<svg xmlns="http://www.w3.org/2000/svg" viewBox="0 0 40 40"><path d="M20 0c-5.54 0-10 2.23-10 5v4h10v1H5c-2.77 0-5 4.46-5 10s2.23 10 5 10h4c0-2.52.155-4.428.523-5.902.369-1.474.97-2.532 1.852-3.239C13.141 19.447 15.75 19.5 19.5 19.5c4.25 0 6.912-.057 8.39-1.152.74-.548 1.254-1.359 1.602-2.694S30 12.48 30 10V5c0-2.77-4.46-5-10-5m-5.5 3.15A1.85 1.85 0 0 1 16.35 5a1.85 1.85 0 0 1-1.85 1.85A1.85 1.85 0 0 1 12.65 5a1.85 1.85 0 0 1 1.85-1.85M31 10c0 2.52-.153 4.43-.54 5.908-.385 1.478-1.027 2.542-1.976 3.244C26.588 20.557 23.75 20.5 19.5 20.5c-3.75 0-6.14.053-7.5 1.14-.68.544-1.173 1.361-1.508 2.7C10.158 25.678 10 27.52 10 30v5c0 2.77 4.46 5 10 5s10-2.23 10-5v-4H20v-1h15c2.77 0 5-4.46 5-10s-2.23-10-5-10zm-5.5 23.15A1.85 1.85 0 0 1 27.35 35a1.85 1.85 0 0 1-1.85 1.85A1.85 1.85 0 0 1 23.65 35a1.85 1.85 0 0 1 1.85-1.85"/><path d="M10 9.5h10m0 21h10" style="color:#000;font-style:normal;font-variant:normal;font-weight:400;font-stretch:normal;font-size:medium;line-height:normal;font-family:sans-serif;font-variant-ligatures:normal;font-variant-position:normal;font-variant-caps:normal;font-variant-numeric:normal;font-variant-alternates:normal;font-variant-east-asian:normal;font-feature-settings:normal;font-variation-settings:normal;text-indent:0;text-align:start;text-decoration-line:none;text-decoration-style:solid;text-decoration-color:#000;letter-spacing:normal;word-spacing:normal;text-transform:none;writing-mode:lr-tb;direction:ltr;text-orientation:mixed;dominant-baseline:auto;baseline-shift:baseline;text-anchor:start;white-space:normal;shape-padding:0;shape-margin:0;inline-size:0;clip-rule:nonzero;display:inline;overflow:visible;visibility:visible;isolation:auto;mix-blend-mode:normal;color-interpolation:sRGB;color-interpolation-filters:linearRGB;solid-color:#000;solid-opacity:1;vector-effect:none;fill:#000;fill-opacity:1;fill-rule:nonzero;stroke:none;stroke-linecap:butt;stroke-linejoin:miter;stroke-miterlimit:4;stroke-dasharray:none;stroke-dashoffset:0;stroke-opacity:1;-inkscape-stroke:none;color-rendering:auto;image-rendering:auto;shape-rendering:auto;text-rendering:auto;stop-color:#000"/></svg>
